X: 1
T:Spirit of 1881 -- Hornpipe
M:2/4
L:1/16
R:hornpipe
B:Ryan's Mammoth Collection
N:134 775
Z:Contributed by Ray Davies,  ray:davies99.freeserve.co.uk
K:A
v(3AAA (cA) "0"e2ag | {g}fefg abaf | (3AAA (cA) "0"e2{g}fe |\
 dcBA GBEG |
(3AAA (cA) "0"e2(ag) | fefg abaf | agae fdBG | A2c2A2:|
|:vAB|\
cAEA c"4"ecA | dBGB dfed | cAEA cecA | BAGF vE2vAB |
cAEA cecA | dBGB dfed | c"4"eAc BdGB | A2c2A2:|
